src/resources/assets/location.svg

<svg xmlns="http://www.w3.org/2000/svg" width="16" height="16"><path d="M 8 1 C 11.3125 1 14 3.6875 14 7 C 14 9.867188 12.066406 12.503906 8.269531 14.921875 C 8.105469 15.027344 7.894531 15.027344 7.730469 14.921875 C 3.933594 12.503906 2 9.867188 2 7 C 2 3.6875 4.6875 1 8 1 Z M 8 2 C 5.238281 2 3 4.238281 3 7 C 3 9.324219 4.539062 11.558594 7.679688 13.691406 L 8 13.90625 L 8.320312 13.691406 C 11.460938 11.558594 13 9.324219 13 7 C 13 4.238281 10.761719 2 8 2 Z M 8 5.5 C 8.828125 5.5 9.5 6.171875 9.5 7 C 9.5 7.828125 8.828125 8.5 8 8.5 C 7.171875 8.5 6.5 7.828125 6.5 7 C 6.5 6.171875 7.171875 5.5 8 5.5 Z M 8 5.5" fill="#ddd"/></svg>

<svg xmlns="http://www.w3.org/2000/svg" width="16" height="16"><path d="M8 1c3.313 0 6 2.688 6 6 0 2.867-1.934 5.504-5.73 7.922a.499.499 0 01-.54 0C3.934 12.504 2 9.867 2 7c0-3.313 2.688-6 6-6zm0 1a5 5 0 00-5 5c0 2.324 1.54 4.559 4.68 6.691l.32.215.32-.215C11.46 11.56 13 9.324 13 7a5 5 0 00-5-5zm0 3.5a1.5 1.5 0 110 3 1.5 1.5 0 010-3zm0 0" fill="#ddd"/></svg>
